packages/core/src/svgs/tokens/branded/EQUAL.svg

<svg width="24" height="24" viewBox="0 0 24 24" fill="none" xmlns="http://www.w3.org/2000/svg">
<path fill-rule="evenodd" clip-rule="evenodd" d="M12 20.8235C14.3401 20.8235 16.5845 19.8938 18.2392 18.2392C19.8939 16.5845 20.8236 14.3401 20.8236 12C20.8236 9.65983 19.8939 7.41554 18.2392 5.76081C16.5845 4.10608 14.3401 3.17647 12 3.17647C9.65982 3.17647 7.41555 4.10608 5.76082 5.76081C4.10608 7.41554 3.17647 9.65983 3.17647 12C3.17647 14.3401 4.10608 16.5845 5.76082 18.2392C7.41555 19.8938 9.65982 20.8235 12 20.8235ZM12 22C14.6522 22 17.1957 20.9464 19.0711 19.071C20.9464 17.1957 22 14.6522 22 12C22 9.34785 20.9464 6.80429 19.0711 4.92892C17.1957 3.05357 14.6522 2 12 2C9.34784 2 6.80429 3.05357 4.92892 4.92892C3.05357 6.80429 2 9.34785 2 12C2 14.6522 3.05357 17.1957 4.92892 19.071C6.80429 20.9464 9.34784 22 12 22Z" fill="url(#paint0_linear_364_2701)"/>
<path d="M12.8824 6.41155C11.0001 6.41155 7.19424 7.39391 5.52954 7.88214L8.47071 4.64685V5.52919C8.76483 5.33509 10.0001 4.94096 12.5884 4.94096C15.1766 4.94096 17.5883 6.89979 18.4707 7.88214H17.8825C17.0001 7.39391 14.7649 6.41155 12.8824 6.41155Z" fill="url(#paint1_linear_364_2701)"/>
<path d="M11.1177 17.5883C13.0002 17.5883 16.806 16.606 18.4707 16.1178L15.5295 19.353V18.4708C15.2354 18.6648 14.0001 19.0589 11.4119 19.0589C8.82366 19.0589 6.41188 17.1001 5.52954 16.1178H6.11777C7.00012 16.606 9.23542 17.5883 11.1177 17.5883Z" fill="url(#paint2_linear_364_2701)"/>
<path d="M15.5293 7.8822H9.64694C9.33496 7.8822 9.03567 8.00616 8.81504 8.22678C8.59441 8.44742 8.47046 8.74665 8.47046 9.05867V14.3528C8.47046 15.7645 9.64694 16.1175 10.2352 16.1175H15.5293C15.5293 14.7057 14.3529 14.3528 13.7646 14.3528H12.5882C11.9999 14.3528 10.8233 14.3528 10.8233 11.9999C10.8233 10.1174 11.9999 9.64693 12.5882 9.64693H13.4704C15.1175 9.64693 15.5293 8.47044 15.5293 7.8822Z" fill="url(#paint3_linear_364_2701)"/>
<path d="M9.64694 14.3528C8.94105 14.3528 8.57046 13.5705 8.47046 13.1763V14.3528C8.47046 15.7645 9.64694 16.1175 10.2352 16.1175H15.5293C15.5293 14.7057 14.3529 14.3528 13.7646 14.3528H9.64694Z" fill="url(#paint4_linear_364_2701)"/>
<path d="M9.64694 9.64693C8.94105 9.64693 8.76458 10.041 8.76458 10.2352C8.76458 11.1764 9.747 11.4116 10.2352 11.4116H13.7646C15.1764 11.4116 15.5293 12.588 15.5293 13.1763H9.64694C8.94105 13.1763 8.57046 12.3939 8.47046 11.9999V9.05867C8.47046 8.1175 9.25281 7.8822 9.64694 7.8822H15.5293C15.5293 9.29391 14.3529 9.64693 13.7646 9.64693H9.64694Z" fill="url(#paint5_linear_364_2701)"/>
<defs>
<linearGradient id="paint0_linear_364_2701" x1="21.4117" y1="12.8823" x2="2" y2="13.1764" gradientUnits="userSpaceOnUse">
<stop stop-color="#2DFAEE"/>
<stop offset="1" stop-color="#015BD5"/>
</linearGradient>
<linearGradient id="paint1_linear_364_2701" x1="20.1819" y1="11.0906" x2="3.26016" y2="11.4336" gradientUnits="userSpaceOnUse">
<stop stop-color="#2AF0ED"/>
<stop offset="1" stop-color="#056BD7"/>
</linearGradient>
<linearGradient id="paint2_linear_364_2701" x1="19.2729" y1="11.091" x2="5.57968" y2="10.8629" gradientUnits="userSpaceOnUse">
<stop stop-color="#27E6EB"/>
<stop offset="1" stop-color="#0569D7"/>
</linearGradient>
<linearGradient id="paint3_linear_364_2701" x1="12.0332" y1="1.99986" x2="12.0332" y2="21.9999" gradientUnits="userSpaceOnUse">
<stop stop-color="#22D3E8"/>
<stop offset="1" stop-color="#0A7CDA"/>
</linearGradient>
<linearGradient id="paint4_linear_364_2701" x1="21.1666" y1="13.9998" x2="2.83321" y2="13.9998" gradientUnits="userSpaceOnUse">
<stop stop-color="#29EEEC"/>
<stop offset="1" stop-color="#035FD5"/>
</linearGradient>
<linearGradient id="paint5_linear_364_2701" x1="15.236" y1="11.4115" x2="8.47123" y2="11.4115" gradientUnits="userSpaceOnUse">
<stop stop-color="#28EAEC"/>
<stop offset="1" stop-color="#015BD5"/>
</linearGradient>
</defs>
</svg>

<svg xmlns="http://www.w3.org/2000/svg" width="24" height="24" fill="none" viewBox="0 0 24 24">
    <path fill="url(#EQUAL__a)" fill-rule="evenodd" d="M12 20.824a8.824 8.824 0 1 0 0-17.649 8.824 8.824 0 0 0 0 17.649M12 22a10 10 0 1 0 0-20 10 10 0 0 0 0 20" clip-rule="evenodd"/>
    <path fill="url(#EQUAL__b)" d="M12.882 6.412c-1.882 0-5.688.982-7.352 1.47l2.94-3.235v.882c.295-.194 1.53-.588 4.118-.588s5 1.959 5.883 2.941h-.588c-.883-.488-3.118-1.47-5-1.47"/>
    <path fill="url(#EQUAL__c)" d="M11.118 17.588c1.882 0 5.688-.982 7.353-1.47l-2.941 3.235v-.882c-.295.194-1.53.588-4.118.588s-5-1.959-5.882-2.941h.588c.882.488 3.117 1.47 5 1.47"/>
    <path fill="url(#EQUAL__d)" d="M15.53 7.882H9.646A1.177 1.177 0 0 0 8.47 9.06v5.294c0 1.412 1.177 1.765 1.765 1.765h5.294c0-1.412-1.176-1.765-1.764-1.765h-1.177c-.588 0-1.765 0-1.765-2.353 0-1.883 1.177-2.353 1.765-2.353h.882c1.647 0 2.06-1.177 2.06-1.765"/>
    <path fill="url(#EQUAL__e)" d="M9.647 14.353c-.706 0-1.077-.783-1.177-1.177v1.177c0 1.412 1.177 1.765 1.765 1.765h5.294c0-1.412-1.176-1.765-1.764-1.765z"/>
    <path fill="url(#EQUAL__f)" d="M9.647 9.647c-.706 0-.882.394-.882.588 0 .941.982 1.177 1.47 1.177h3.53c1.411 0 1.764 1.176 1.764 1.764H9.647c-.706 0-1.077-.782-1.177-1.176V9.059c0-.941.783-1.177 1.177-1.177h5.882c0 1.412-1.176 1.765-1.764 1.765z"/>
    <defs>
        <linearGradient id="EQUAL__a" x1="21.412" x2="2" y1="12.882" y2="13.176" gradientUnits="userSpaceOnUse">
            <stop stop-color="#2DFAEE"/>
            <stop offset="1" stop-color="#015BD5"/>
        </linearGradient>
        <linearGradient id="EQUAL__b" x1="20.182" x2="3.26" y1="11.091" y2="11.434" gradientUnits="userSpaceOnUse">
            <stop stop-color="#2AF0ED"/>
            <stop offset="1" stop-color="#056BD7"/>
        </linearGradient>
        <linearGradient id="EQUAL__c" x1="19.273" x2="5.58" y1="11.091" y2="10.863" gradientUnits="userSpaceOnUse">
            <stop stop-color="#27E6EB"/>
            <stop offset="1" stop-color="#0569D7"/>
        </linearGradient>
        <linearGradient id="EQUAL__d" x1="12.033" x2="12.033" y1="2" y2="22" gradientUnits="userSpaceOnUse">
            <stop stop-color="#22D3E8"/>
            <stop offset="1" stop-color="#0A7CDA"/>
        </linearGradient>
        <linearGradient id="EQUAL__e" x1="21.167" x2="2.833" y1="14" y2="14" gradientUnits="userSpaceOnUse">
            <stop stop-color="#29EEEC"/>
            <stop offset="1" stop-color="#035FD5"/>
        </linearGradient>
        <linearGradient id="EQUAL__f" x1="15.236" x2="8.471" y1="11.412" y2="11.412" gradientUnits="userSpaceOnUse">
            <stop stop-color="#28EAEC"/>
            <stop offset="1" stop-color="#015BD5"/>
        </linearGradient>
    </defs>
</svg>
